packages/core/src/svgs/tokens/branded/ANKR.svg

<svg width="24" height="24" viewBox="0 0 24 24" fill="none" xmlns="http://www.w3.org/2000/svg">
<path d="M13.2939 2.31211L19.8316 5.66847C20.2977 5.90648 20.6889 6.26905 20.9613 6.71591C21.2339 7.16276 21.3772 7.6764 21.3753 8.1998V9.49992H18.8754V8.1998C18.8754 8.04355 18.8754 7.8873 18.7316 7.81855L12.1875 4.55593C12.1266 4.52516 12.059 4.50913 11.9906 4.50913C11.9224 4.50913 11.8549 4.52516 11.7938 4.55593L5.26861 7.81229C5.12486 7.88104 5.12486 8.03731 5.12486 8.1873V9.49992H2.62477V8.1998C2.62369 7.67656 2.76732 7.1632 3.03977 6.71646C3.31221 6.26975 3.70288 5.90705 4.16857 5.66847L10.7063 2.31211C11.1067 2.10697 11.5502 2 12.0001 2C12.45 2 12.8934 2.10697 13.2939 2.31211ZM13.8752 11.9999C13.8752 10.9124 13.0751 10.1248 12.0001 10.1248C11.7525 10.1197 11.5063 10.1648 11.2765 10.2573C11.0468 10.3496 10.8379 10.4875 10.6628 10.6627C10.4876 10.8378 10.3498 11.0465 10.2574 11.2764C10.1649 11.5062 10.12 11.7522 10.1251 11.9999C10.1125 13.075 10.8626 13.8625 12.0001 13.8751C13.1377 13.8875 13.8752 13.0875 13.8752 11.9999ZM18.7316 16.1876C18.8754 16.1125 18.8754 15.9563 18.8754 15.8001V14.5H21.3753V15.8001C21.3772 16.3234 21.2339 16.837 20.9613 17.284C20.6889 17.7309 20.2977 18.0934 19.8316 18.3314L13.3001 21.6878C12.8986 21.893 12.4541 22 12.0032 22C11.5523 22 11.1079 21.893 10.7063 21.6878L4.16857 18.3314C3.70241 18.0934 3.31136 17.7309 3.03884 17.284C2.76631 16.837 2.62298 16.3234 2.62477 15.8001V14.5H5.12486V15.8001C5.12486 15.9626 5.12486 16.1125 5.26861 16.1813L10.75 18.8751V16.0626C9.8423 15.8464 9.03634 15.3248 8.46739 14.5852C7.89843 13.8455 7.60099 12.9328 7.62494 11.9999C7.62494 9.53113 9.3625 7.62479 12.0001 7.62479C14.6376 7.62479 16.3753 9.49992 16.3753 11.9999C16.3753 14.1062 15.1314 15.5376 13.2501 16.0626V18.8751L18.7316 16.1876Z" fill="#2075E8"/>
</svg>

<svg xmlns="http://www.w3.org/2000/svg" width="24" height="24" fill="none" viewBox="0 0 24 24">
    <path fill="#2075E8" d="m13.294 2.312 6.538 3.356A2.83 2.83 0 0 1 21.375 8.2v1.3h-2.5V8.2c0-.156 0-.313-.143-.381l-6.544-3.263a.44.44 0 0 0-.394 0L5.269 7.812c-.144.069-.144.225-.144.375V9.5h-2.5V8.2a2.84 2.84 0 0 1 1.544-2.532l6.537-3.356a2.84 2.84 0 0 1 2.588 0M13.875 12c0-1.088-.8-1.875-1.875-1.875A1.837 1.837 0 0 0 10.125 12c-.012 1.075.738 1.863 1.875 1.875s1.875-.787 1.875-1.875m4.857 4.188c.143-.075.143-.232.143-.388v-1.3h2.5v1.3a2.83 2.83 0 0 1-1.543 2.531L13.3 21.688a2.85 2.85 0 0 1-2.594 0L4.17 18.33a2.83 2.83 0 0 1-1.544-2.53v-1.3h2.5v1.3c0 .163 0 .313.144.381l5.481 2.694v-2.812A4.07 4.07 0 0 1 7.625 12c0-2.469 1.738-4.375 4.375-4.375S16.375 9.5 16.375 12c0 2.106-1.244 3.538-3.125 4.063v2.812z"/>
</svg>
